X:368
T:Soldier I havn for a Lady JBut.366, A
T:City of Paris,aka.  JBut.366
T:Mount,aka.  JBut.366, The
T:Green Box,aka. JBut.366, The
T:Robinson Crusoe,aka. JBut.366
B:John Buttrey MS, poss. Lincolnshire, early 19thC
S:https://buttreymilitarysocialtunes1800.wordpress.com/
Z:Village Music Project 2019 Taz Tarry
N:The anacrusis at the start of the B part is a crotchet in the ms.
N:I have changed this to a quaver to keep the correct number of notes.
Q:3/8=110
M:6/8
L:1/8
K:D
A|d2d cBc|d3 def|gfg e2 a|g2f f2A|B2B Bcd|AFD DFA|GEG FDF|F2 D3 A|
d2d cBc|d3 def|gfg e2 a|g2f f2A|B2B Bcd|AFD DFA|Bgf edc|d3 d2:|
|:a|agf efg|faf e2 a|agf efg|faf e2 A|AFA ded|AFA ded|ABA AGF|F3E2!D.C.!:|

